X: 12704
T: Father Fielding's Favourite
R: jig
M: 6/8
K: Gmajor
D|:GFG BcA|BGF GBc|dBG cAF|GDC B,CA,|
GFG BcA|BAG fed|cAG FGA|1 BGF G2 D:|2 BGF GBd||
|:gfg afd|cBc dBG|gfg afd|cBc def|
gdg fdf|ece gfe|ded cBA|1 (3BGF GBd:|M:5/8
L:1/16
[2 B2 G2 F2 G4||

